X: 10083
T: PAT SPAETH'S REEL
C: Bob McQuillen 27 Oct 93
B: Bob's Note Book 10 #83
%R: reel
Z: 2020 John Chambers <jc:trillian.mit.edu>
M: C
L: 1/8
K: F
cB \
| AFDF CFAc | BdcB AFAc | fcdf dBdf | cAFA G2cB |\
| AFDF CFAc | BdcB Acfd | cAcf dBdf | cege f2  :|
|: fg \
| afcf afdf | cfaf gfdc | AFAc fcfa | gfed c2fg |\
| afcf afdf | gafd cAfd | cfaf dcfd | cAGA F2  :|
%%begintext align
%% From Seattle, WA, Pat Spaeth is one great
%% piano player. She can really _play_ the piano - melody, back-up, whatever.
%% One of the treats of my life is to listen to her playing for the S-Curves at the Folklife
%% Festival. WOW! Between what they're doing with their marvelous singing,
%% and what she's doing with her wonderful accompaniment, it makes for one
%% of my all-time favorite musical experiences. Thanks so much, Pat, for your
%% part in giving us all so much pleasure -- It's worth going to Folklife, just
%% for that!
%%endtext

%%sep 1 1 500

%%sep 1 1 500

